Adwaita++-Dark/actions/22/fitwidth.svg

<svg height="22" viewBox="0 0 22 22" width="22" xmlns="http://www.w3.org/2000/svg">
  <path d="m19 11-2-1.5-2-1.5v2h-8v-2l-2 1.5-2 1.5 2 1.5 2 1.5v-2h8v2l2-1.5z" fill="#e6ddff"/>
</svg>

<svg xmlns="http://www.w3.org/2000/svg" width="22" height="22" version="1.1" viewBox="0 0 22 22">
 <defs>
  <style id="current-color-scheme" type="text/css">
   .ColorScheme-Text { color:#E6DDFF; } .ColorScheme-Highlight { color:#4285f4; }
  </style>
 </defs>
 <path style="fill:currentColor" class="ColorScheme-Text" d="M 19,11 17,9.5 15,8 v 2 H 7 V 8 L 5,9.5 3,11 5,12.5 7,14 v -2 h 8 v 2 l 2,-1.5 z"/>
</svg>
